X: 57
M:C|
L:1/8
K:A
((3uEFG)|A>GA>B A>ce>c|B>^AB>c B>Fd>c|\
|:uc2|B>"4"e^d>e B>g^^f>g|e>Be>g b2a>g|\
f>ga>f ^d>Bc>^d|(3.e.g.f (3.e.d.c B2G>A|
f>ga>f ^d>Bc>d|e2g2e2:|


